X: 874
T: Alex Francis MacKay
R: strathspey
M: 4/4
K: Edorian
F|"Em"{EF}E>E (3EGA B<EG>E|"D"F<Ad>B A/G/F/E/ D>F|"Em"{EF}E>E (3EGA "G"B<g{fg}f>e|"D"d/c/B/A/ d>F "Em"G<E{EF}E:|
f|"Em"{gf}g>e"D"f<d "Em"{ef}[e2e2] B<e|"D"d>d e/d/c/B/ A>DF<A|"Em"g>e"D"f<b "Em"{ef}[e3/2e3/2]d/B>e|"D"d/c/B/A/ d>F "Em"G<E{EF}E>f|
"Em"{gf}g>e"D"f<d "Em"{ef}[e2e2] B<e|"D"d>d e/d/c/B/ A>DF<A|"Em"g>e"D"f<b "Em"e<fB>e|"D"d/c/B/A/ d>F "Em"G<E{EF}E||

